X: 23
T:Early Rose (#223), The
M:4/4
L:1/8
S:Rice-Walsh manuscript
R:Reel
K:G
G2 BG FGAc|Bdef g2 dg|ecAG FGAc|BGAF GFED|
DGBG FGAc|Bdef g2 dg|ecAG FGAc|BGAF G2||
Bd|g2 gg a2 aa|bgaf g2 dg|egfa g2 dg|ecAF GFED|
gbag fagf|egfa g2 dg|egfa g2 ga|bgaf gedB||

